X:1
T:Yes, We’ll Meet in the Morning
T:Yes, We’ll Meet in the Morning
T:George Frederick Root
T:C. E. B., 1891, arr.
T:Public Domain Courtesy of the Cyber Hymnal™
T:Public Domain Courtesy of the Cyber Hymnal™
C:George Frederick Root
Z:Public Domain
Z:Courtesy of the Cyber Hymnal™
%%score ( 1 2 ) ( 3 4 )
L:1/8
Q:1/4=105
M:4/4
K:G
V:1 treble 
V:2 treble 
V:3 bass 
V:4 bass 
V:1
 D>D | [DG]2 [DG]2 [DG]2 [DG]>[DB] | [Gd]4 [DB]2 [DG]>[DB] | [B,D]2 [B,D]>[B,D] [CE]2 [CF]2 | %4
w: 1.~Yes, we’ll|meet a- gain in the|morn- ing, In the|dawn of a fair- er|
w: 2.~Where our|pre- cious ones now are|dwell- ing, Free from|toil and from ev- ery|
w: 3.~O what|joy when all shall be|o- ver, And the|jour- ney on earth we|
 [B,G]6 D>D | [DG]2 [DG]2 [DG]2 [DG]>[DB] | [Gd]4 [DB]2 [DG]>[DB] | %7
w: day; When the|night of watch- ing and|wait- ing, With its|
w: care; With their|gar- ments spot- less and|shin- ing, Like the|
w: close, And the|an- gels home- ward shall|bear us, Where the|
 [B,D]2 [B,D]>[B,D] [CE]2 [CF]2 | [B,G]6 [B,G]>[B,G] | [Ec]2 [Ec]2 [DB]2 [^C^A]2 | %10
w: dark- ness has passed a-|way. Where no|sha- dows veil the|
w: robes that the an- gels|wear. When our|pil- grim- age com-|
w: life- stream for- ev- er|flows. We shall|see the King of|
 [DB]4 [B,G]2 [DA]>[DB] | [DA]2 [DA]>[DA] [^CG]2 [CG]2 | [DF]6 D>D | [DG]2 [DG]2 [DG]2 [DG]>[DB] | %14
w: sun- shine, O- ver|there in the heav’n- ly|land, And the|cry- stal waves of the|
w: plet- ed, And our|foot- steps no lon- ger|roam, By the|pearl- y gates glad- ly|
w: glo- ry, We shall|praise Him with harp and|voice; We shall|sing the grace that re-|
 [Gd]4 [DB]2 [DG]>[DB] | [B,D]2 [B,D]>[B,D] [CE]2 [CF]2 | [B,G]6 |] %17
w: riv- er, Ev- er|flow o’er the gold- en|sand.|
w: wait- ing, They will|give us a wel- come|home.|
w: deemed us, While our|hearts in His love re-|joice.|
V:2
 D>D | x8 | x8 | x8 | x6 D>D | x8 | x8 | x8 | x8 | x8 | x8 | x8 | x6 D>D | x8 | x8 | x8 | x6 |] %17
V:3
 D,>D, | [G,B,]2 [G,B,]2 [G,B,]2 [G,B,]>G, | [G,B,]4 G,2 [B,,G,]>[G,,G,] | %3
 [D,G,]2 [D,G,]>[D,G,] [D,F,]2 [D,A,]2 | [G,,G,]6 D,>D, | [G,B,]2 [G,B,]2 [G,B,]2 [G,B,]>G, | %6
 [G,B,]4 G,2 [B,,G,]>[G,,G,] | [D,G,]2 [D,G,]>[D,G,] [D,F,]2 [D,A,]2 | [G,,G,]6 G,>G, | %9
 G,2 G,2 G,2 G,2 | G,4 G,2 G,>G, | [F,A,]2 [F,A,]>[F,A,] [E,A,]2 [E,A,]2 | [D,A,]6 [D,F,]>[C,F,] | %13
 [B,,G,]2 [B,,B,]2 [G,B,]2 [D,B,]>[B,,G,] | [G,,B,]4 [G,,G,]2 [B,,G,]>[G,,G,] | %15
 [D,G,]2 [D,G,]>[D,G,] [D,F,]2 [D,A,]2 | [G,,G,]6 |] %17
V:4
 D,>D, | x15/2 G,/ | x4 G,2 x2 | x8 | x6 D,>D, | x15/2 G,/ | x4 G,2 x2 | x8 | x6 G,>G, | %9
 G,2 G,2 G,2 G,2 | G,4 G,2 G,>G, | x8 | x8 | x8 | x8 | x8 | x6 |] %17

